svgs/warpinator.svg

<svg width="192" height="192" viewBox="0 0 192 192" fill="none" xmlns="http://www.w3.org/2000/svg">
<path d="M86.0881 117.555C99.8086 117.555 110.931 106.394 110.931 92.6249C110.931 78.8562 99.8086 67.6945 86.0881 67.6945C72.3676 67.6945 61.245 78.8562 61.245 92.6249C61.245 106.394 72.3676 117.555 86.0881 117.555Z" stroke="black" stroke-width="12" stroke-linecap="round" stroke-linejoin="round"/>
<path d="M40.0426 48.1769C47.2458 48.1769 53.0852 42.317 53.0852 35.0884C53.0852 27.8599 47.2458 22 40.0426 22C32.8394 22 27 27.8599 27 35.0884C27 42.317 32.8394 48.1769 40.0426 48.1769Z" stroke="black" stroke-width="12" stroke-linecap="round" stroke-linejoin="round"/>
<path d="M43.7209 170C51.9597 170 58.6386 163.298 58.6386 155.03C58.6386 146.762 51.9597 140.06 43.7209 140.06C35.4821 140.06 28.8033 146.762 28.8033 155.03C28.8033 163.298 35.4821 170 43.7209 170Z" stroke="black" stroke-width="12" stroke-linecap="round" stroke-linejoin="round"/>
<path d="M156.957 100.436C164.161 100.436 170 94.576 170 87.3475C170 80.1189 164.161 74.259 156.957 74.259C149.754 74.259 143.915 80.1189 143.915 87.3475C143.915 94.576 149.754 100.436 156.957 100.436Z" stroke="black" stroke-width="12" stroke-linecap="round" stroke-linejoin="round"/>
<path d="M48.3783 47.1701L69.1074 73.4649" stroke="black" stroke-width="6" stroke-linecap="round" stroke-dasharray="1 9"/>
<path d="M53.7825 142.817L73.2565 115.573" stroke="black" stroke-width="6" stroke-linecap="round" stroke-dasharray="1 9"/>
<path d="M110.774 90.5089L144.156 89.1354" stroke="black" stroke-width="6" stroke-linecap="round" stroke-dasharray="1 9"/>
</svg>

<svg width="192" height="192" viewBox="0 0 192 192" fill="none" xmlns="http://www.w3.org/2000/svg"><path d="M86.088 117.555c13.72 0 24.843-11.161 24.843-24.93s-11.122-24.93-24.843-24.93c-13.72 0-24.843 11.161-24.843 24.93s11.123 24.93 24.843 24.93ZM40.043 48.177c7.203 0 13.042-5.86 13.042-13.089C53.085 27.86 47.245 22 40.043 22 32.839 22 27 27.86 27 35.088c0 7.229 5.84 13.089 13.043 13.089ZM43.72 170c8.24 0 14.919-6.702 14.919-14.97s-6.68-14.97-14.918-14.97c-8.239 0-14.918 6.702-14.918 14.97S35.483 170 43.721 170ZM156.957 100.436c7.204 0 13.043-5.86 13.043-13.089 0-7.228-5.839-13.088-13.043-13.088-7.203 0-13.042 5.86-13.042 13.088 0 7.229 5.839 13.089 13.042 13.089Z" stroke="#000" stroke-width="12" stroke-linecap="round" stroke-linejoin="round"/><path d="m48.378 47.17 20.73 26.295M53.782 142.817l19.475-27.244M110.774 90.509l33.382-1.374" stroke="#000" stroke-width="6" stroke-linecap="round" stroke-dasharray="1 9"/></svg>
